!!!COM: Ives, Charles
!!!OTL: Tone Roads No. 3 for Chamber Orchestra
!!!OMV:
!!!example: 238
!!!work: Ive-41
**kern	**kern	**dynam	**kern	**kern	**kern	**kern	**kern	**dynam
*part6	*part6	*part6	*part5	*part4	*part3	*part2	*part1	*part1
*staff7	*staff6	*	*staff5	*staff4	*staff3	*staff2	*staff1	*
*I"Piano	*	*	*I"Tubular Bells	*I"Trombone	*I"Trumpet in Bb	*I"Clarinet in Bb	*I"Flute	*
*I'Pno.	*	*	*I'Tub. B.	*I'Tbn.	*I'Tpt.	*I'Cl.	*I'Fl.	*
*clefF4	*clefF4	*	*clefG2	*clefF4	*clefG2	*clefG2	*clefG2	*
*k[]	*k[]	*	*k[]	*k[]	*k[]	*k[]	*k[]	*
*C:	*C:	*	*C:	*C:	*C:	*C:	*C:	*
*M4/4	*M4/4	*	*M4/4	*M4/4	*M4/4	*M4/4	*M4/4	*
*MM121	*MM121	*	*MM121	*MM121	*MM121	*MM121	*MM121	*
=1	=1	=1	=1	=1	=1	=1	=1	=1
3%2EEE-X 3%2EE-X	1r	.	3%2e-X	5D	8.bL	16ccLL	8r	.
.	.	.	.	.	.	16b	.	.
.	.	.	.	.	.	16f#X	4ff	f
.	.	.	.	.	16bJk	16aJJ	.	.
.	.	.	.	5E-X	.	.	.	.
.	.	.	.	.	4ee	16bLL	.	.
.	.	.	.	.	.	16b-X	.	.
.	.	.	.	.	.	16fn	8bb	.
.	.	.	.	10F#XL	.	.	.	.
.	.	.	.	.	.	[16ccJJ	.	.
.	.	.	.	10GJ	4ddn	8ccL]	12ddd#XL	.
.	.	.	.	.	.	.	12ccc#X	.
.	.	.	.	5c#X	.	.	.	.
.	.	.	.	.	.	16bnL	.	.
3DDD 3DD	.	.	3d	.	.	.	12ggJ	.
.	.	.	.	.	.	16f#XJJ	.	.
.	.	.	.	.	8.bL	4a	12dddnL	.
.	.	.	.	10.CnL	.	.	.	.
.	.	.	.	.	.	.	12cccn	.
.	.	.	.	.	.	.	12ggg#XJ	.
.	.	.	.	.	16cJk	.	.	.
.	.	.	.	20AJk	.	.	.	.
=2	=2	=2	=2	=2	=2	=2	=2	=2
3EEEn 3EEn	1r	.	3en	5B-X	4f	16gg-XLL	6aaa	.
.	.	.	.	.	.	16gg-J	.	.
.	.	.	.	.	.	8f#XJ	.	.
.	.	.	.	.	.	.	[12gg	.
.	.	.	.	5A-X	.	.	.	.
.	.	.	.	.	8gL	16gLL	6gg	.
.	.	.	.	.	.	16gg-X	.	.
3%2FFF#X 3%2FF#X	.	.	3%2f#X	.	.	.	.	.
.	.	.	.	.	8aJ	16ff	.	.
.	.	.	.	10.eL	.	.	.	.
.	.	.	.	.	.	.	12bb-X	.
.	.	.	.	.	.	16eJJ	.	.
.	.	.	.	.	4c#X	16e-XKL	12ddL	.
.	.	.	.	20eJk	.	.	.	.
.	.	.	.	.	.	8d	.	.
.	.	.	.	.	.	.	12ee-X	.
.	.	.	.	5Fn	.	.	.	.
.	.	.	.	.	.	.	[12ddJ	.
.	.	.	.	.	.	[16dd-XJk	.	.
.	.	.	.	.	4ccn	16dd-LL]	12ddL	.
.	.	.	.	[5G	.	.	.	.
.	.	.	.	.	.	16c	.	.
.	.	.	.	.	.	.	12aa	.
.	.	.	.	.	.	16en	.	.
.	.	.	.	.	.	.	12aa-XJ	.
.	.	.	.	.	.	[16gJJ	.	.
=3	=3	=3	=3	=3	=3	=3	=3	=3
3FFFn 3FFn	1r	.	3fn	5G]	2f#X	16gLL]	4.ggn	.
.	.	.	.	.	.	16cc	.	.
.	.	.	.	.	.	16b	.	.
.	.	.	.	.	.	16f#XJJ	.	.
.	.	.	.	5%2a-X	.	.	.	.
.	.	.	.	.	.	16gLL	.	.
.	.	.	.	.	.	16dd-X	.	.
3DDD-X 3DD-X	.	.	3d-X	.	.	.	.	.
.	.	.	.	.	.	16ccn	8ff	.
.	.	.	.	.	.	16fnJJ	.	.
.	.	.	.	.	2g	8.ccL	4.aan	.
.	.	.	.	10.gL	.	.	.	.
3CCCn 3CCn	.	.	3cn	.	.	.	.	.
.	.	.	.	.	.	16bnJk	.	.
.	.	.	.	20gJk	.	16f#XKL	.	.
.	.	.	.	5An	.	.	.	.
.	.	.	.	.	.	8.anJ	.	.
.	.	.	.	.	.	.	8gg-X	.
=4	=4	=4	=4	=4	=4	=4	=4	=4
3%2GGG#X 3%2GG#X	1r	.	3%2g#X	5B	4a#X	16ccLL	12aaL	.
.	.	.	.	.	.	16b	.	.
.	.	.	.	.	.	.	12gg	.
.	.	.	.	.	.	16f#X	.	.
.	.	.	.	.	.	.	[12ddJ	.
.	.	.	.	.	.	16gJJ	.	.
.	.	.	.	5A	.	.	.	.
.	.	.	.	.	4b	16bLL	12ddL	.
.	.	.	.	.	.	16b-X	.	.
.	.	.	.	.	.	.	12e	.
.	.	.	.	.	.	16f#	.	.
.	.	.	.	10GL	.	.	.	.
.	.	.	.	.	.	.	[12fJ	.
.	.	.	.	.	.	[16ccJJ	.	.
.	.	.	.	10F#XJ	12eL	16ccKL]	8fL	.
.	.	.	.	.	.	8bn	.	.
.	.	.	.	.	12e	.	.	.
.	.	.	.	5G#X	.	.	.	.
.	.	.	.	.	.	.	8cc	.
[3BBB [3BB	.	.	[3b	.	[12d-XJ	.	.	.
.	.	.	.	.	.	16f#XJk	.	.
.	.	.	.	.	12d-L	8.gL	8dd#X	.
.	.	.	.	5C	.	.	.	.
.	.	.	.	.	12a-X	.	.	.
.	.	.	.	.	.	.	[8ddnJ	.
.	.	.	.	.	12gJ	.	.	.
.	.	.	.	.	.	16dd-XJk	.	.
=5	=5	=5	=5	=5	=5	=5	=5	=5
3BBB 3BB	2r	.	3b	10DL	8ggL	16ccLL	4dd]	.
.	.	.	.	.	.	16b	.	.
.	.	.	.	10EJ	.	.	.	.
.	.	.	.	.	8ff#XJ	16f#X	.	.
.	.	.	.	.	.	16gJJ	.	.
.	.	.	.	5GG#X	.	.	.	.
.	.	.	.	.	6fn	16bLL	8cL	.
.	.	.	.	.	.	16b-X	.	.
3GGGn 3GGn	.	.	3gn	.	.	.	.	.
.	.	.	.	.	.	16f#	8c#XJ	.
.	.	.	.	5Fn	.	.	.	.
.	.	.	.	.	[12ccn	.	.	.
.	.	.	.	.	.	[16ccJJ	.	.
.	4r	.	.	.	12cc	16ccLL]	[4d	.
.	.	.	.	.	.	16bn	.	.
.	.	.	.	.	6cc#X	.	.	.
.	.	.	.	5Gn	.	.	.	.
.	.	.	.	.	.	16f#X	.	.
3FFF#X 3FF#X	.	.	3f#X	.	.	.	.	.
.	.	.	.	.	.	16gJJ	.	.
.	[4E-X^^ [4d	f	.	.	8eeL	16ee-XLL	12d]	.
.	.	.	.	5BBn	.	.	.	.
.	.	.	.	.	.	16ddJ	.	.
.	.	.	.	.	.	.	6d#X	.
.	.	.	.	.	8ddnJ	8dd-XJ	.	.
=6	=6	=6	=6	=6	=6	=6	=6	=6
*M3/4	*M3/4	*	*M3/4	*M3/4	*M3/4	*M3/4	*M3/4	*
4AAA 4AA	8.E-L] 8.d]	.	4a	10.BB-XL	8B-XL	64%3ccLLL	12aaL	.
.	.	.	.	.	.	64%3b	.	.
.	.	.	.	.	.	.	12gg#X	.
.	.	.	.	.	.	64%3f#X	.	.
.	.	.	.	.	8cJ	.	.	.
.	.	.	.	.	.	64%3g	.	.
.	.	.	.	10.D	.	.	.	.
.	.	.	.	.	.	.	[12gnJ	.
.	[16D-X^^Jk [16c	.	.	.	.	64%3b	.	.
.	.	.	.	.	.	64%3b-X	.	.
4DDDn 4DDn	8D-L] 8c]	.	4dn	.	6c#X	.	12gL	.
.	.	.	.	.	.	64%3fn	.	.
.	.	.	.	10.C#X	.	.	.	.
.	.	.	.	.	.	64%3ccJJ	.	.
.	.	.	.	.	.	.	12dd	.
.	[8En^^J [8en	.	.	.	.	64%3bnLL	.	.
.	.	.	.	.	[12dn	.	12dd#XJ	.
.	.	.	.	.	.	64%3f#X	.	.
.	.	.	.	[10.F	.	.	.	.
.	.	.	.	.	.	64%3g	.	.
4DDD-X 4DD-X	16EKL] 16e]	.	4d-X	.	8dL	.	6ff#X	.
.	.	.	.	.	.	64%3b	.	.
.	8.E-X^^J 8.dn	.	.	.	.	64%3b-X	.	.
.	.	.	.	20.FL	.	.	.	.
.	.	.	.	.	.	64%3fn	.	.
.	.	.	.	.	8fnJ	.	.	.
.	.	.	.	.	.	64%3cc	.	.
.	.	.	.	.	.	.	[12ee	.
.	.	.	.	20.EJJ	.	.	.	.
.	.	.	.	.	.	64%3bnJJJ	.	.
=7	=7	=7	=7	=7	=7	=7	=7	=7
4EE 4E	8.F#XL 8.f	.	4ee	10.G#XL	8.gL	64%3f#XLLL	6ee	.
.	.	.	.	.	.	64%3g	.	.
.	.	.	.	.	.	64%3b	.	.
.	.	.	.	.	.	64%3b-X	.	.
.	.	.	.	10.Gn	.	.	.	.
.	.	.	.	.	.	.	[12fff	.
.	[16En^^Jk [16e-X	.	.	.	[16fnJk	64%3fn	.	.
.	.	.	.	.	.	64%3cc	.	.
4FF 4F	8EL] 8d	.	4ff	.	8fL]	.	4fff	.
.	.	.	.	.	.	64%3bn	.	.
.	.	.	.	[10.Bn	.	.	.	.
.	.	.	.	.	.	64%3f#XJJ	.	.
.	[8F#^^J [8g	.	.	.	[8a-XJ	64%3gLL	.	.
.	.	.	.	.	.	64%3b	.	.
.	.	.	.	20.BL	.	.	.	.
.	.	.	.	.	.	64%3b-X	.	.
4GGG 4GG	16F#KL] 16g]	.	4g	.	16a-KL]	.	4bb-X	.
.	.	.	.	.	.	64%3fn	.	.
.	.	.	.	20.B-XJ	.	.	.	.
.	8.F#X^^J 8.fn	.	.	.	8.gnJ	64%3cc	.	.
.	.	.	.	[10.B-J	.	.	.	.
.	.	.	.	.	.	64%3bn	.	.
.	.	.	.	.	.	64%3f#X	.	.
.	.	.	.	.	.	64%3gJJJ	.	.
*	*clefG2	*	*	*	*	*	*	*
=8	=8	=8	=8	=8	=8	=8	=8	=8
*M4/4	*M4/4	*	*M4/4	*M4/4	*M4/4	*M4/4	*M4/4	*
*^	*	*	*	*	*	*	*	*
2r	3GGG#X 3GG#X	16r	.	3g#X	5B-	16r	16aa-XLL	3ee-X	.
.	.	8.Gn 8.f#X	.	.	.	8.a-X	16gg	.	.
.	.	.	.	.	.	.	16f#X	.	.
.	.	.	.	.	.	.	16gJJ	.	.
.	.	.	.	.	5AA	.	.	.	.
.	.	8.GL 8.a-X	.	.	.	8.g-XL	16gg-XLL	.	.
.	.	.	.	.	.	.	16ff	.	.
.	3BBBB 3BBB	.	.	3B	.	.	.	6dd	.
.	.	.	.	.	.	.	16e	.	.
.	.	.	.	.	10.E-XL	.	.	.	.
.	.	[16G#XJk [16gn	.	.	.	[16anJk	16e-XJJ	.	.
4r	.	8G#L] 8g]	.	.	.	8aL]	16dLL	4.cc	.
.	.	.	.	.	20D-Xk	.	.	.	.
.	.	.	.	.	.	.	16dd-X	.	.
.	.	.	.	.	10.c	.	.	.	.
.	.	[8G#XJ [8an	.	.	.	[8b-XJ	16c	.	.
.	3GGGn 3GGn	.	.	3gn	.	.	.	.	.
.	.	.	.	.	.	.	16bJJ	.	.
16c#XKL	.	16G#KL] 16a]	.	.	[20Bn^^Jk	16b-KL]	16f#XLL	.	.
.	.	.	.	.	5B	.	.	.	.
8.F#XJ	.	8.dnJ	.	.	.	8.e-XJ	16g	.	.
.	.	.	.	.	.	.	16b	[8ff#X	.
.	.	.	.	.	.	.	16b-XJJ	.	.
=9	=9	=9	=9	=9	=9	=9	=9	=9	=9
12FL 12c	3AAAA#X 3AAA#X	8.dL	.	3A#X	10.BL	12fnL	16fnLL	8.ff#L]	.
.	.	.	.	.	.	.	16cc	.	.
12En 12cn	.	.	.	.	.	12f#X	.	.	.
.	.	.	.	.	.	.	16bn	.	.
.	.	.	.	.	[20Fnk	.	.	.	.
12BBnJ 12Bn	.	.	.	.	.	12gJ	.	.	.
.	.	[16b-XJk	.	.	.	.	16f#XJJ	16ffJk	.
.	.	.	.	.	10F	.	.	.	.
12FF#XL 12F#X	.	8b-L]	.	.	.	3ff#X	16gLL	3ccc#X	.
.	.	.	.	.	[10B-XJ	.	.	.	.
.	.	.	.	.	.	.	16b	.	.
12GG 12G	3CCCn 3CCn	.	.	3cn	.	.	.	.	.
.	.	[8AJ	.	.	.	.	16b-X	.	.
.	.	.	.	.	5B-	.	.	.	.
[12CC#XJ [12C#X	.	.	.	.	.	.	.	.	.
.	.	.	.	.	.	.	16fnJJ	.	.
4CC# 4C#	.	4A]	.	.	.	.	16ccLL	.	.
.	.	.	.	.	.	.	16bn	.	.
.	.	.	.	.	.	[6cc#X	.	[6gg#X	.
.	.	.	.	.	5.D-X	.	.	.	.
.	.	.	.	.	.	.	16f#X	.	.
.	3EEEn 3EEn	.	.	3en	.	.	.	.	.
.	.	.	.	.	.	.	16gJJ	.	.
4EE-X 4En	.	4r	.	.	.	8cc#L	16bnLL	8gg#L	.
.	.	.	.	.	.	.	16b-X	.	.
.	.	.	.	.	.	8anJ	16fn	8eenJ	.
.	.	.	.	.	20E-XLL	.	.	.	.
.	.	.	.	.	.	.	16ccJJ	.	.
.	.	.	.	.	20DnJJ	.	.	.	.
*v	*v	*	*	*	*	*	*	*	*
=	=	=	=	=	=	=	=	=
*-	*-	*-	*-	*-	*-	*-	*-	*-
!!!system-decoration: [(s1,s2)][(s3,s4)]s5{(s6,s7)}
!!!CDT: 1874/10/20-1954/05/19
!!!CBL: Danbury, United States
!!!CDL: New York, United States
!!!CNT: American
!!!AGN: Orchestral; Programmatic
!!!MCN: Tenney, James
!!!MDT: 1963/12/20
!!!MGN: Tone Roads Chamber Ensemble
!!!MLC: New York, New York, United States of America
!!!MPD: 1963
!!!MPN:
!!!ODT: 1914
!!!PDT: 1952
!!!excerpt-start-measure: 1[13]
!!!excerpt-end-measure: 9[21]
!!!excerpt-start-time: 0:33
!!!excerpt-end-time: 0:53
!!!EEV: 2020/01/25
!!!ONB: Converted from MusicXML on 2020/01/25
